X: 964
T: All My Friends
R: reel
M: 4/4
K: Bdorian
b|:fBBA B2Af|eAce fecb|fBBA Bcdf|1 edcd B/B/B Bb:|2 edcd B/B/B Bc||
|:BFDF BcdB|cA[AE]A cAec|BFDF BcdB|1 cAac B/B/BBc:|2 cAac B/B/BBA||
Bbb^a bffg|aefa cAAc|Bbb^a bf=ge|fdec dBBA|
Bbb^a bffg|aefa cAAc|dcBc defd|caec B/B/BBc|
|:BFDB, DFBd|cAED CEAc|BFDB, DFBd|1 cAac B/B/BBc:|2 cAac B/B/BB2||

